X: 1
T: Portland Fancy, The
M: 6/8
L: 1/8
R: jig
K: Dmaj
E2A E2A|EAB c2c|dcd Bcd|f2e cAF|
E2A E2A|EAB c2c|dcd EF^G|AcB Ace|
a2a ^gag|fdf e2c|dcd Bcd|cde f2e|
a2a ^gag|fdf e2c|dcd EF^G|AcB AF=G|
ABc d2e|f2g a3|efg Ade|f2d AFG|
ABc d2e|f2g a3|efg ABc|d2f d3|
F2A F2A|FAd f3|ece gec|dfe dAG|
F2A F2A|FAd f3|ece gec|d3 d3||
